.config/awesome/icons-18px/widget/consume.svg

<?xml version="1.0" encoding="UTF-8" standalone="no"?>
<svg
   xmlns:dc="http://purl.org/dc/elements/1.1/"
   xmlns:cc="http://creativecommons.org/ns#"
   xmlns:rdf="http://www.w3.org/1999/02/22-rdf-syntax-ns#"
   xmlns:svg="http://www.w3.org/2000/svg"
   xmlns="http://www.w3.org/2000/svg"
   width="10"
   height="18"
   viewBox="0 0 10 18"
   id="svg2"
   version="1.1">
  <defs
     id="defs4" />
  <metadata
     id="metadata7">
    <rdf:RDF>
      <cc:Work
         rdf:about="">
        <dc:format>image/svg+xml</dc:format>
        <dc:type
           rdf:resource="http://purl.org/dc/dcmitype/StillImage" />
        <dc:title></dc:title>
      </cc:Work>
    </rdf:RDF>
  </metadata>
  <path
     id="rect12598"
     d="M 4,5 4,6 3,6 2,6 2,7 2,8 1,8 l 0,1 0,1 0,1 1,0 0,1 0,1 1,0 1,0 0,1 1,0 1,0 1,0 0,-1 1,0 0,-1 1,0 L 9,11 8,11 7,11 7,10 6,10 5,10 5,9 6,9 7,9 7,8 8,8 9,8 9,7 8,7 8,6 7,6 7,5 6,5 5,5 4,5 Z"
     style="color:#000000;clip-rule:nonzero;display:inline;overflow:visible;visibility:visible;opacity:1;isolation:auto;mix-blend-mode:normal;color-interpolation:sRGB;color-interpolation-filters:linearRGB;solid-color:#000000;solid-opacity:1;fill:#eee8d5;fill-opacity:1;fill-rule:evenodd;stroke:none;stroke-width:0.354;stroke-linecap:butt;stroke-linejoin:round;stroke-miterlimit:4;stroke-dasharray:none;stroke-dashoffset:0;stroke-opacity:1;marker:none;color-rendering:auto;image-rendering:auto;shape-rendering:auto;text-rendering:auto;enable-background:accumulate" />
</svg>

<?xml version="1.0" encoding="UTF-8" standalone="no"?>
<svg
   xmlns:dc="http://purl.org/dc/elements/1.1/"
   xmlns:cc="http://creativecommons.org/ns#"
   xmlns:rdf="http://www.w3.org/1999/02/22-rdf-syntax-ns#"
   xmlns:svg="http://www.w3.org/2000/svg"
   xmlns="http://www.w3.org/2000/svg"
   version="1.1"
   id="svg2"
   viewBox="0 0 10 18"
   height="18"
   width="10">
  <defs
     id="defs4" />
  <metadata
     id="metadata7">
    <rdf:RDF>
      <cc:Work
         rdf:about="">
        <dc:format>image/svg+xml</dc:format>
        <dc:type
           rdf:resource="http://purl.org/dc/dcmitype/StillImage" />
        <dc:title />
      </cc:Work>
    </rdf:RDF>
  </metadata>
  <g
     transform="translate(0,-1034.3622)"
     id="layer1">
    <path
       id="rect12598"
       transform="translate(0,1034.3622)"
       d="M 4 5 L 4 6 L 3 6 L 2 6 L 2 7 L 2 8 L 1 8 L 1 9 L 1 10 L 1 11 L 2 11 L 2 12 L 2 13 L 3 13 L 4 13 L 4 14 L 5 14 L 6 14 L 7 14 L 7 13 L 8 13 L 8 12 L 9 12 L 9 11 L 8 11 L 7 11 L 7 10 L 6 10 L 5 10 L 5 9 L 6 9 L 7 9 L 7 8 L 8 8 L 9 8 L 9 7 L 8 7 L 8 6 L 7 6 L 7 5 L 6 5 L 5 5 L 4 5 z "
       style="color:#000000;clip-rule:nonzero;display:inline;overflow:visible;visibility:visible;opacity:1;isolation:auto;mix-blend-mode:normal;color-interpolation:sRGB;color-interpolation-filters:linearRGB;solid-color:#000000;solid-opacity:1;fill:#eee8d5;fill-opacity:1;fill-rule:evenodd;stroke:none;stroke-width:0.354;stroke-linecap:butt;stroke-linejoin:round;stroke-miterlimit:4;stroke-dasharray:none;stroke-dashoffset:0;stroke-opacity:1;marker:none;color-rendering:auto;image-rendering:auto;shape-rendering:auto;text-rendering:auto;enable-background:accumulate" />
  </g>
</svg>
